static/icons/refresh.svg

<svg width="19" height="19" viewBox="0 0 19 19" fill="none" xmlns="http://www.w3.org/2000/svg">
<path d="M17.3 11.43C17.048 11.3515 16.7752 11.3757 16.5411 11.4975C16.3069 11.6192 16.1304 11.8286 16.05 12.08C15.5776 13.5245 14.6566 14.7805 13.421 15.6654C12.1854 16.5503 10.6997 17.0178 9.18 17C7.30035 17.0214 5.48894 16.2965 4.14297 14.9842C2.79701 13.672 2.02635 11.8796 2 10C2.02635 8.12041 2.79701 6.32798 4.14297 5.01576C5.48894 3.70354 7.30035 2.97863 9.18 3C10.8776 2.9959 12.5229 3.5868 13.83 4.67L11.66 4.31C11.5299 4.2886 11.3969 4.29312 11.2686 4.3233C11.1403 4.35348 11.0193 4.40873 10.9124 4.48586C10.8055 4.563 10.715 4.6605 10.6459 4.77276C10.5768 4.88502 10.5307 5.00982 10.51 5.14C10.4886 5.27005 10.4931 5.40305 10.5233 5.53135C10.5535 5.65965 10.6087 5.78072 10.6859 5.88759C10.763 5.99446 10.8605 6.08503 10.9728 6.15409C11.085 6.22315 11.2098 6.26934 11.34 6.29L15.58 6.99H15.75C15.866 6.98986 15.981 6.96956 16.09 6.93C16.1266 6.91609 16.1605 6.89577 16.19 6.87C16.2617 6.84334 16.3291 6.80627 16.39 6.76L16.48 6.65C16.48 6.6 16.57 6.56 16.61 6.5C16.65 6.44 16.61 6.4 16.66 6.36C16.6876 6.30176 16.711 6.2416 16.73 6.18L17.48 2.18C17.505 2.04867 17.5038 1.91372 17.4766 1.78285C17.4494 1.65198 17.3967 1.52774 17.3215 1.41724C17.2462 1.30674 17.15 1.21213 17.0382 1.13883C16.9264 1.06552 16.8013 1.01495 16.67 0.989997C16.5387 0.965046 16.4037 0.966205 16.2729 0.993408C16.142 1.02061 16.0177 1.07332 15.9072 1.14854C15.6841 1.30044 15.5304 1.53478 15.48 1.8L15.21 3.25C13.536 1.79924 11.3952 1.00043 9.18 0.999997C6.76993 0.978664 4.44984 1.91429 2.7288 3.60158C1.00777 5.28886 0.0263909 7.58998 0 10C0.0263909 12.41 1.00777 14.7111 2.7288 16.3984C4.44984 18.0857 6.76993 19.0213 9.18 19C11.1331 19.03 13.0443 18.4321 14.6321 17.2944C16.2199 16.1566 17.4005 14.5391 18 12.68C18.0379 12.552 18.0498 12.4176 18.035 12.2849C18.0202 12.1522 17.9789 12.0238 17.9137 11.9073C17.8485 11.7908 17.7605 11.6886 17.6551 11.6066C17.5497 11.5246 17.429 11.4646 17.3 11.43Z" fill="black"/>
</svg>

<svg xmlns="http://www.w3.org/2000/svg" width="19" height="19" fill="none"><path fill="#000" d="M17.3 11.43a1 1 0 0 0-1.25.65A7.14 7.14 0 0 1 9.18 17 7.1 7.1 0 0 1 2 10a7.1 7.1 0 0 1 7.18-7 7.26 7.26 0 0 1 4.65 1.67l-2.17-.36a1 1 0 0 0-1.137 1.221 1 1 0 0 0 .817.759l4.24.7h.17a1 1 0 0 0 .34-.06.33.33 0 0 0 .1-.06.78.78 0 0 0 .2-.11l.09-.11c0-.05.09-.09.13-.15.04-.06 0-.1.05-.14.028-.058.051-.118.07-.18l.75-4a1.017 1.017 0 1 0-2-.38l-.27 1.45A9.21 9.21 0 0 0 9.18 1 9.1 9.1 0 0 0 0 10a9.1 9.1 0 0 0 9.18 9A9.12 9.12 0 0 0 18 12.68a1.001 1.001 0 0 0-.7-1.25Z"/></svg>
